X: 31
T:William and Nancy
% Nottingham Music Database
P:A(AABBB)2(AACCC)2
S:Bledington
M:6/8
K:G
P:A
D|"G"G2G GBd|"C"e2e "G"dBG|"D7"A2d "G"BAG|"C"E2F "G"G2:|
P:B
d|"G"e2d B2d|"C"gfe "D7"d2d|"G"e2d B2d|"A7""C"gfe "D7""D"d2c|
"G""Em"B2B Bcd|"C"e2e "G"dBG|"D7"A2d "G"BAG|"C"E2F "G"G2:|
P:C
"G"d3 "C"e3|"G"d3 "Em"B3|"G"d3 "C"g3/2f3/2|"C"e3 "G"d3|"D7"d3 "G"e3|"G"d3 B2d|\
"A7""C"gfe "D7""D"d2c|
"G""Em"B2B Bcd|"C"e2e "G"dBG|"D7"A2d "G"BAG|"C"E2F "G"G2:|<end>
<start>
